src/lib/packages/icons/src/assets/line/home-activity.svg

<svg width="24" height="24" viewBox="0 0 24 24" fill="none" xmlns="http://www.w3.org/2000/svg">
<path d="M18 21.75H6C3.582 21.75 2.25 20.418 2.25 18V11.65C2.25 9.52704 2.83599 8.93401 3.79199 8.14101L9.91199 3.01003C11.121 1.99503 12.879 1.99503 14.088 3.01003L20.208 8.14101C21.164 8.93401 21.75 9.52804 21.75 11.65V18C21.75 20.418 20.418 21.75 18 21.75ZM12 3.75002C11.601 3.75002 11.201 3.88705 10.875 4.16005L4.74902 9.29604C4.00202 9.91604 3.75 10.125 3.75 11.651V18.001C3.75 19.578 4.423 20.251 6 20.251H18C19.577 20.251 20.25 19.578 20.25 18.001V11.651C20.25 10.125 19.998 9.91604 19.251 9.29604L13.125 4.16005C12.799 3.88605 12.399 3.75002 12 3.75002ZM8.53003 16.53L10.834 14.298L12.105 15.567C12.709 16.17 13.6909 16.1701 14.2939 15.5661L16.5291 13.3311C16.8221 13.0381 16.8221 12.563 16.5291 12.27C16.2361 11.977 15.761 11.977 15.468 12.27L13.162 14.505L11.891 13.236C11.287 12.633 10.305 12.6341 9.69995 13.2371L7.46802 15.469C7.17502 15.762 7.17502 16.237 7.46802 16.53C7.61402 16.676 7.80605 16.75 7.99805 16.75C8.19005 16.75 8.38403 16.677 8.53003 16.53Z" fill="currentColor"/>
</svg>

<svg xmlns="http://www.w3.org/2000/svg" width="24" height="24" fill="none"><path fill="currentColor" d="M18 21.75H6c-2.418 0-3.75-1.332-3.75-3.75v-6.35c0-2.123.586-2.716 1.542-3.509l6.12-5.131a3.244 3.244 0 0 1 4.176 0l6.12 5.131c.956.793 1.542 1.387 1.542 3.509V18c0 2.418-1.332 3.75-3.75 3.75Zm-6-18a1.75 1.75 0 0 0-1.125.41L4.749 9.296c-.747.62-.999.829-.999 2.355v6.35c0 1.577.673 2.25 2.25 2.25h12c1.577 0 2.25-.673 2.25-2.25v-6.35c0-1.526-.252-1.735-.999-2.355L13.125 4.16A1.745 1.745 0 0 0 12 3.75ZM8.53 16.53l2.304-2.232 1.271 1.269a1.55 1.55 0 0 0 2.189 0l2.235-2.236a.75.75 0 0 0-1.061-1.061l-2.306 2.235-1.271-1.269a1.553 1.553 0 0 0-2.191.001L7.468 15.47a.75.75 0 1 0 1.062 1.06Z"/></svg>
